ePapirus/24x24/actions/go-home-symbolic.svg

<svg xmlns="http://www.w3.org/2000/svg" width="24" height="24" version="1.1">
 <path style="fill:#bebebe" d="M 12,4 3.15625,12.84375 4.84375,14.5625 6,13.40625 6,20 l 5,0 0,-4 c 0,-0.554 0.446,-1 1,-1 0.554,0 1,0.446 1,1 l 0,4 5,0 0,-6.59375 1.15625,1.15625 1.6875,-1.71875 L 12,4 z M 16,5 16,6.53125 18,8.625 18,5 16,5 z"/>
</svg>

<svg xmlns="http://www.w3.org/2000/svg" width="24" height="24" version="1.1">
 <path fill="#6e6e6e" d="M 12,4 3.16,12.84 4.84,14.56 6,13.41 V 20 H 11 V 16 C 11,15.45 11.45,15 12,15 12.55,15 13,15.45 13,16 V 20 H 18 V 13.41 L 19.16,14.56 20.84,12.84 Z M 16,5 V 6.53 L 18,8.63 V 5 Z"/>
</svg>
